X:305
T: Lackagh Cross
S: "Johnny O'Leary of Sliabh Luachra" (#220)
Z: B.Black
L: 1/8
M: 2/4
R: polka
Q: 200
K: D
EF/G/ FE|F/E/D FA|EF/G/ FE|F2 FA|
EF/G/ FE|FD FA|BA B/c/d|1 e2 ed/e/ :|2\
e2 f>e||
dA FA|DA FA|c/d/c/B/ GB|A2 A2|
d/A/F//G//A/ FA|DA FA|BA B/c/d|1 e2 ef/e/ :|2\
e2 ed/e/||
